X: 37984
T: Spatter The Dew
R: slip jig
M: 9/8
K: Edorian
|:EFE E2 F G2 F|DED D2 B AFD|E2 E E2 F G2 B|AF/G/A dAG FED:|
|:E2 B B2 F G2 F|E2 B B2 G AFD|1 E2 B B2 F G2 B|AFA dAG F2 D:|
[2 E2 B ABc dcB|AFA dAG FED||
|:B2 e e/f/ed e2 d|Bee e2 a fdB|1 Add dcd d2 B|A2 e d2 B AFD:|
[2 fga e/f/ge d2 A|BB/c/d dAG F2 D||
|:B/c/dB Ac/B/A G2 F|EFE E2 B AFD|1 BdB ABA G2 B|AFA dAG F2 D:|
[2 Bcd ABc dcB|AFd d2 G FED||

